libs/ui/packages/crypto-icons/src/svg/XDN.svg

<svg width="24" height="24" viewBox="0 0 24 24" fill="none">
<path d="M9.98175 9H12.0353C13.0268 9 14.7975 9.60225 14.7975 12C14.7975 14.3977 13.0275 15 12.0353 15H9.9825L9.98175 9ZM11.1143 13.785H11.9648C12.6728 13.785 13.5225 13.3515 13.5225 12C13.5225 10.6485 12.6728 10.215 11.9648 10.215H11.115L11.1143 13.785ZM15.5775 9H16.002L19.8255 14.2695V9H20.25V15H19.8248L16.0012 9.846V15H15.576L15.5775 9ZM3.75 9H5.166V10.5H3.75V9ZM5.87475 9H7.29V10.5H5.87475V9ZM7.99875 9H9.4155V10.5H7.99875V9ZM7.99875 11.25H9.4155V12.75H7.99875V11.25ZM7.99875 13.5H9.4155V15H7.99875V13.5ZM5.87475 11.25H7.29V12.75H5.87475V11.25Z" fill="#4F7AA2"/>
</svg>

<svg width="24" height="24" viewBox="0 0 24 24" fill="none"><path fill="#4f7aa2" d="M9.982 9h2.053c.992 0 2.762.602 2.762 3s-1.77 3-2.762 3H9.983zm1.132 4.785h.85c.709 0 1.559-.434 1.559-1.785s-.85-1.785-1.558-1.785h-.85zM15.578 9h.424l3.824 5.27V9h.424v6h-.425L16 9.846V15h-.425zM3.75 9h1.416v1.5H3.75zm2.125 0H7.29v1.5H5.875zm2.124 0h1.417v1.5H7.999zm0 2.25h1.417v1.5H7.999zm0 2.25h1.417V15H7.999zm-2.124-2.25H7.29v1.5H5.875z"/></svg>
